src/Pure/16/symbolic/actions/object-rotate-left-symbolic.svg

<?xml version="1.0" encoding="UTF-8" standalone="no"?>
<svg
   height="16"
   width="16"
   version="1.1"
   id="svg4"
   sodipodi:docname="object-rotate-left-symbolic.svg"
   inkscape:version="1.4.2 (ebf0e940d0, 2025-05-08)"
   xmlns:inkscape="http://www.inkscape.org/namespaces/inkscape"
   xmlns:sodipodi="http://sodipodi.sourceforge.net/DTD/sodipodi-0.dtd"
   xmlns="http://www.w3.org/2000/svg"
   xmlns:svg="http://www.w3.org/2000/svg">
  <defs
     id="defs4">
    <style
       id="current-color-scheme"
       type="text/css">
        .ColorScheme-Text { color:#363636; }
     </style>
  </defs>
  <sodipodi:namedview
     id="namedview4"
     pagecolor="#ffffff"
     bordercolor="#000000"
     borderopacity="0.25"
     inkscape:showpageshadow="2"
     inkscape:pageopacity="0.0"
     inkscape:pagecheckerboard="0"
     inkscape:deskcolor="#d1d1d1"
     inkscape:zoom="49.6875"
     inkscape:cx="8"
     inkscape:cy="8"
     inkscape:window-width="1920"
     inkscape:window-height="1010"
     inkscape:window-x="0"
     inkscape:window-y="0"
     inkscape:window-maximized="1"
     inkscape:current-layer="svg4" />
  <path
     id="path1"
     style="fill:currentColor"
     class="ColorScheme-Text"
     d="m 8.4257812,1.0136719 v 0.00195 C 6.6178263,0.90617072 4.8377382,1.5011667 3.4589844,2.6757812 L 2.0917969,1.3085938 0.71484375,5.9902344 5.3945312,4.6132812 4.1660156,3.3847656 c 1.7364923,-1.4443911 4.1374198,-1.790185 6.2109374,-0.8945312 2.614881,1.1256121 4.077522,3.9349913 3.5,6.7226562 C 13.300213,12.001633 10.85226,13.9982 8.0039062,14 L 7.2324219,13.947266 7.1660156,14.945312 7.5,14.966797 V 15 H 8 c 3.319586,-0.0018 6.182067,-2.333418 6.855469,-5.5839844 0.669899,-3.2515435 -1.034592,-6.526777 -4.082031,-7.84375 -0.761001,-0.328 -1.5566567,-0.5115937 -2.3476568,-0.5585937 z M 8,6 C 6.8954305,6 6,6.8954305 6,8 6,9.1045695 6.8954305,10 8,10 9.1045695,10 10,9.1045695 10,8 10,6.8954305 9.1045695,6 8,6 Z M 8,7 C 8.5522847,7 9,7.4477153 9,8 9,8.5522847 8.5522847,9 8,9 7.4477153,9 7,8.5522847 7,8 7,7.4477153 7.4477153,7 8,7 Z m -5.2128906,3.972656 -0.8320313,0.554688 0.4804688,0.71875 0.039063,0.05078 0.091797,0.103516 0.75,-0.660157 -0.072266,-0.08398 z m 1.1699218,1.445313 -0.6582031,0.751953 0.421875,0.36914 0.050781,0.03906 0.3671875,0.244141 0.5546875,-0.832032 -0.3398438,-0.226562 z m 1.5507813,1.027343 -0.4414063,0.896485 0.2167969,0.109375 0.060547,0.02344 0.7167969,0.246094 0.3222656,-0.947265 -0.6757813,-0.230469 z"
     sodipodi:nodetypes="ccccccccccccccccccsssssssssscccccccccccccccccccccccc" />
</svg>

<?xml version="1.0" encoding="UTF-8" standalone="no"?>
<svg
   height="16"
   width="16"
   version="1.1"
   id="svg4"
   sodipodi:docname="object-rotate-left-symbolic.svg"
   inkscape:version="1.4.2 (ebf0e940d0, 2025-05-08)"
   xmlns:inkscape="http://www.inkscape.org/namespaces/inkscape"
   xmlns:sodipodi="http://sodipodi.sourceforge.net/DTD/sodipodi-0.dtd"
   xmlns="http://www.w3.org/2000/svg"
   xmlns:svg="http://www.w3.org/2000/svg">
  <defs
     id="defs4">
     <style
        id="current-color-scheme"
        type="text/css">
        .ColorScheme-Text { color:#363636; }
     </style>
  </defs>
  <sodipodi:namedview
     id="namedview4"
     pagecolor="#ffffff"
     bordercolor="#000000"
     borderopacity="0.25"
     inkscape:showpageshadow="2"
     inkscape:pageopacity="0.0"
     inkscape:pagecheckerboard="0"
     inkscape:deskcolor="#d1d1d1"
     inkscape:zoom="49.6875"
     inkscape:cx="8"
     inkscape:cy="8"
     inkscape:window-width="1920"
     inkscape:window-height="1010"
     inkscape:window-x="0"
     inkscape:window-y="0"
     inkscape:window-maximized="1"
     inkscape:current-layer="svg4" />
  <path
     id="path1"
     style="fill:currentColor"
     class="ColorScheme-Text"
     d="M 8.4257812 1.0136719 L 8.4257812 1.015625 A 7.006 7.006 0 0 0 3.4589844 2.6757812 L 2.0917969 1.3085938 C 1.8257969 2.0475937 1.5729375 2.8180469 1.3359375 3.6230469 C 1.1049375 4.4240469 0.89784375 5.2142344 0.71484375 5.9902344 C 1.4978437 5.8142344 2.2898438 5.6099062 3.0898438 5.3789062 C 3.8958438 5.1419062 4.6625313 4.8862812 5.3945312 4.6132812 L 4.1660156 3.3847656 A 5.995 5.995 0 0 1 10.376953 2.4902344 A 5.995 5.995 0 0 1 13.876953 9.2128906 C 13.300213 12.001633 10.85226 13.9982 8.0039062 14 L 7.2324219 13.947266 L 7.1660156 14.945312 L 7.5 14.966797 L 7.5 15 L 8 15 A 7.005 7.005 0 0 0 14.855469 9.4160156 A 7.005 7.005 0 0 0 10.773438 1.5722656 C 10.012437 1.2442656 9.2167813 1.0606719 8.4257812 1.0136719 z M 8 6 A 2 2 0 0 0 6 8 A 2 2 0 0 0 8 10 A 2 2 0 0 0 10 8 A 2 2 0 0 0 8 6 z M 8 7 A 1 1 0 0 1 9 8 A 1 1 0 0 1 8 9 A 1 1 0 0 1 7 8 A 1 1 0 0 1 8 7 z M 2.7871094 10.972656 L 1.9550781 11.527344 L 2.4355469 12.246094 L 2.4746094 12.296875 L 2.5664062 12.400391 L 3.3164062 11.740234 L 3.2441406 11.65625 L 2.7871094 10.972656 z M 3.9570312 12.417969 L 3.2988281 13.169922 L 3.7207031 13.539062 L 3.7714844 13.578125 L 4.1386719 13.822266 L 4.6933594 12.990234 L 4.3535156 12.763672 L 3.9570312 12.417969 z M 5.5078125 13.445312 L 5.0664062 14.341797 L 5.2832031 14.451172 L 5.34375 14.474609 L 6.0605469 14.720703 L 6.3828125 13.773438 L 5.7070312 13.542969 L 5.5078125 13.445312 z " />
</svg>
